icons/water_treatment.svg

<svg width="48" height="48" viewBox="0 0 48 48" fill="none" xmlns="http://www.w3.org/2000/svg">
<path d="M41.4246 28.5148C40.4541 32.2605 38.3058 35.5822 35.3138 38H41V40H32L32 31H34L34 36.49C36.6891 34.3371 38.6197 31.3663 39.4886 28.0131C40.4475 24.3123 40.0495 20.3904 38.3668 16.9576C36.6841 13.5248 33.8278 10.8079 30.3151 9.299C26.8024 7.79006 22.8656 7.58877 19.2173 8.73156L18.6195 6.823C22.7238 5.53736 27.1527 5.76382 31.1045 7.46137C35.0563 9.15893 38.2696 12.2154 40.1626 16.0773C42.0557 19.9392 42.5034 24.3513 41.4246 28.5148Z" fill="black"/>
<path d="M8.51148 19.9869C9.38029 16.6337 11.3109 13.6629 14 11.51V17H16V8H7.00002V10H12.6863C9.69426 12.4178 7.54595 15.7395 6.57542 19.4852C5.49665 23.6487 5.94433 28.0608 7.83739 31.9227C9.73046 35.7846 12.9438 38.8411 16.8955 40.5386C20.8473 42.2362 25.2763 42.4627 29.3806 41.177L28.7827 39.2685C25.1345 40.4112 21.1976 40.2099 17.6849 38.701C14.1722 37.1921 11.316 34.4752 9.63324 31.0424C7.95052 27.6096 7.55258 23.6877 8.51148 19.9869Z" fill="black"/>
<path fill-rule="evenodd" clip-rule="evenodd" d="M22.6966 16.5398C20.9318 18.7675 18 23.0371 18 26.8182C18 30.2323 20.6863 33 24 33C27.3137 33 30 30.2323 30 26.8182C30 23.0371 27.0683 18.7675 25.3035 16.5398C24.5436 15.5806 24 15 24 15C24 15 23.4565 15.5806 22.6966 16.5398ZM24 31C26.1533 31 28 29.1844 28 26.8182C28 24.7373 26.7943 22.2053 25.3295 19.9805C24.8713 19.2844 24.4116 18.6537 24 18.1198C23.5885 18.6537 23.1288 19.2844 22.6705 19.9805C21.2057 22.2053 20 24.7373 20 26.8182C20 29.1844 21.8467 31 24 31Z" fill="black"/>
</svg>

<svg
  xmlns="http://www.w3.org/2000/svg"
  width="24"
  height="24"
  viewBox="0 0 24 24"
  fill="none"
  stroke="currentColor"
  stroke-width="2"
  stroke-linecap="round"
  stroke-linejoin="round"
>
  <path d="M41.425 28.515A18 18 0 0 1 35.314 38H41v2h-9v-9h2v5.49A16 16 0 0 0 19.217 8.732l-.598-1.909a18 18 0 0 1 22.806 21.692" />
  <path d="M8.511 19.987A16 16 0 0 1 14 11.51V17h2V8H7v2h5.686a18 18 0 0 0 16.695 31.177l-.598-1.908A16 16 0 0 1 8.51 19.987" />
  <path
    fill-rule="evenodd"
    d="M22.697 16.54C20.932 18.767 18 23.037 18 26.818 18 30.232 20.686 33 24 33s6-2.768 6-6.182c0-3.78-2.932-8.05-4.696-10.278C24.543 15.58 24 15 24 15s-.544.58-1.303 1.54M24 31c2.153 0 4-1.816 4-4.182 0-2.08-1.206-4.613-2.67-6.838A31 31 0 0 0 24 18.12a31 31 0 0 0-1.33 1.86C21.207 22.206 20 24.737 20 26.819 20 29.184 21.847 31 24 31"
    clip-rule="evenodd"
  />
</svg>
